icons/mountains.svg

<svg xmlns="http://www.w3.org/2000/svg" viewBox="0 0 24 24" fill="currentColor">
  <path d="M16.9018 5.5c0-.69036.5596-1.25 1.25-1.25.6903 0 1.25.55964 1.25 1.25s-.5597 1.25-1.25 1.25c-.6904 0-1.25-.55964-1.25-1.25Zm1.25-2.75c-1.5188 0-2.75 1.23122-2.75 2.75s1.2312 2.75 2.75 2.75 2.75-1.23122 2.75-2.75-1.2312-2.75-2.75-2.75ZM3.68678 19.2014l5.50107-9.90191c.05012-.06377.13272-.10826.24276-.11249.0911-.0035.15773.02182.19853.04905l2.18366 4.54925L7.56514 19.75H3.95178c-.29671 0-.43121-.3159-.28969-.514l.02469-.0346Zm9.57592-4.8663c.0588-.0826.0985-.1731.12-.2661l1.1853-1.6412.0078-.0117c.1032-.1547.3488-.1547.4519 0l.0155.0231 5.3046 6.806c.066.0991.0726.2239.0157.342-.0605.1257-.1493.1628-.2117.1628H9.40661l3.85609-5.4149Zm-2.3718-5.93675 1.8913 3.94015.5544-.7677c.6952-1.0234 2.2194-1.0277 2.9216-.0128l5.2948 6.7934.0091.0127c.8206 1.1489.0573 2.8859-1.4103 2.8859H3.95178c-1.48706 0-2.35001-1.6478-1.5375-2.8468l5.49663-9.89391.01684-.02526c.68618-1.02928 2.19785-1.04235 2.90965-.1525l.0535.06682Z"/>
</svg>

<svg width="24" height="24" viewBox="0 0 24 24" fill="none" xmlns="http://www.w3.org/2000/svg">
<path fill-rule="evenodd" clip-rule="evenodd" d="M16.9018 5.5C16.9018 4.80964 17.4614 4.25 18.1518 4.25C18.8421 4.25 19.4018 4.80964 19.4018 5.5C19.4018 6.19036 18.8421 6.75 18.1518 6.75C17.4614 6.75 16.9018 6.19036 16.9018 5.5ZM18.1518 2.75C16.633 2.75 15.4018 3.98122 15.4018 5.5C15.4018 7.01878 16.633 8.25 18.1518 8.25C19.6706 8.25 20.9018 7.01878 20.9018 5.5C20.9018 3.98122 19.6706 2.75 18.1518 2.75ZM3.68678 19.2014L9.18785 9.29949C9.23797 9.23572 9.32057 9.19123 9.43061 9.187C9.52171 9.1835 9.58834 9.20882 9.62914 9.23605L11.8128 13.7853L7.56514 19.75H3.95178C3.65507 19.75 3.52057 19.4341 3.66209 19.236L3.68678 19.2014ZM13.2627 14.3351C13.3215 14.2525 13.3612 14.162 13.3827 14.069L14.568 12.4278L14.5758 12.4161C14.679 12.2614 14.9246 12.2614 15.0277 12.4161L15.0432 12.4392L20.3478 19.2452C20.4138 19.3443 20.4204 19.4691 20.3635 19.5872C20.303 19.7129 20.2142 19.75 20.1518 19.75H9.40661L13.2627 14.3351ZM10.8909 8.39835L12.7822 12.3385L13.3366 11.5708C14.0318 10.5474 15.556 10.5431 16.2582 11.558L21.553 18.3514L21.5621 18.3641C22.3827 19.513 21.6194 21.25 20.1518 21.25H3.95178C2.46472 21.25 1.60177 19.6022 2.41428 18.4032L7.91091 8.50929L7.92775 8.48403C8.61393 7.45475 10.1256 7.44168 10.8374 8.33153L10.8909 8.39835Z" fill="black"/>
</svg>
